X: 37457
T: Sliabh Russell
R: jig
M: 6/8
K: Adorian
|:eAA Bcd|e2 a ged|eAA cBA|BGG Bcd|
e2 A BB/c/d|eaf ged|eAA cBA|1 BA^G A2 d:|2 BA^G AB/c/d||
|:eaa efg|agf gfd|e2 a ee/f/g|agf g2 c|
e2 a efg|agf gfd|edB c2 A|1 BA^G A2 d:|2 BA^G AB/c/d||

